X:1
T:Piety, 886.886
T:Harmonia Sacra, by Joseph Funk, 5th ed., 1851
T:Piety, 886.886
T:Public Domain
C:Harmonia Sacra, by Joseph Funk, 5th ed., 1851
Z:Public Domain
%%score ( 1 2 ) ( 3 4 )
L:1/8
M:4/4
K:D
V:1 treble 
V:2 treble 
V:3 bass 
V:4 bass 
V:1
 [Fd]4 [Ad]2 [Ac]2 | [Ad]4 [Ad]4 | (f2 e2) (d2 c2) | [Ad]6 A2 | [GB]3 [Fc] ([Gd][Ac])([Bd][GB]) | %5
 ([FA]3 [EG] [DF]2) [Ad]2 | [Af]2 [Ge]2 [Fd]2 [Ec]2 | [Fd]6 [FA]2 | [Ad]4 [Ad]4 | [ce]4 [ce]4 | %10
 ([df]2 [ce]2) ([Bd]2 [Ac]2) | [Ad]6 [FA]2 | [GB]6 ([EG][GB]) | [FA]6 ([DF][FA]) | %14
 [EG]6 ([CE][EG]) | ([DF]2 [FA]2 [Ad]2) [FA]2 | ([Ad]2 [Ge]2 [Ff]2) [Ge]2 | [Ad]4 [Gc]4 | [Fd]8 |] %19
V:2
 x8 | x8 | A4 A4 | x6 A2 | x8 | x8 | x8 | x8 | x8 | x8 | x8 | x8 | x8 | x8 | x8 | x8 | x8 | x8 | %18
 x8 |] %19
V:3
 [D,A,]4 [F,D]2 [A,E]2 | [DF]4 [D,F]4 | ([D,A]2 [G,G]2) ([A,F]2 [A,,E]2) | [D,F]6 [F,D]2 | %4
 [G,D]3 [A,C] (B,[A,C]) [G,D]2 | [D,D]6 ([F,F][E,E]) | [D,D]2 [G,E]2 [A,F]2 [A,,E]2 | %7
 [D,D]6 [D,D]2 | [D,F]4 F,2 D,2 | [A,E]4 C2 A,2 | (D2 [CE]2) ([B,F]2 [A,E]2) | [D,F]6 D,2 | %12
 G,6 E,2 | F,6 D,2 | E,6 C,2 | D,6 [A,F]2 | ([B,F]2 [CE]2 D2) [G,G]2 | [A,F]4 [A,E]4 | [D,F]8 |] %19
V:4
 x8 | x8 | x8 | x8 | x4 B, x3 | x8 | x8 | x8 | x4 F4 | x4 E4 | D2 x6 | x8 | x8 | x8 | x8 | x8 | %16
 x4 D2 x2 | x8 | x8 |] %19

